X:1
T:Angoloise efter Sven Lorenz Bruun
M:2/4
L:1/8
R:Engelska
Z:Jonas Brunskog, 23/6 2008
O:Mnsters, Dderhultsvik, Smland
S:efter Sven Lorenz Bruun
N:Folkmusikkommissionens notsamling, Bild: 59 Volym: M 188 Datering: -1837. Angls 2 av 2.
K:Bb
|:ba b2|f=e f2|dc d2|BA Be/2d/2|cc/2B/2 AA/2G/2|F/2A/2c/2A/2 B2:|
L:1/16
|:cdcB ABcA|BcBA Bdfd|cdcB ABcA|BdcA B4:|
